X: 438
T: Polska efter Olof Olsson
S: efter Olof Olsson
B: EÖ, nr 438
R: Polska
O: Hovra, Hälsingland
Z: Nils L
M: 3/4
L: 1/16
K: Dm
FED^C D2E2 FEFG | A2c2 =B2A^G A2B^c | d2e2 f2a2 gfed | ^cdec d4 D4 |
FED^C D2E2 FEFG | A2c2 =B2A^G A2B^c | d2e2 f2a2 gfed | ^cdec [=Dd]8 ||
a4 f2a2 f2a2 | bagf e2fg e2fg | agfe d2ef d2ef | gfed ^c2ec A4 ||
A2>G2 F2>E2 D2>d2 | ^cdec d6 A2 :|

